z_dist/img/icons/crypto/helium-HNT.svg

<svg width="64" height="64" viewBox="0 0 64 64" fill="none" xmlns="http://www.w3.org/2000/svg">
<rect y="0.000244141" width="64" height="64" rx="4" fill="white"/>
<path fill-rule="evenodd" clip-rule="evenodd" d="M31.9999 6.40015C46.1396 6.40015 57.5999 17.8605 57.5999 32.0001C57.5999 46.1398 46.1396 57.6001 31.9999 57.6001C17.8602 57.6001 6.3999 46.1398 6.3999 32.0001C6.3999 17.8605 17.8602 6.40015 31.9999 6.40015ZM44.2295 19.7175C42.7439 18.2319 40.3033 18.2319 38.8177 19.7175C37.9423 20.5929 37.5443 21.8397 37.73 23.0335C37.7831 23.4314 37.7566 23.8559 37.5709 24.2273C37.3321 24.7048 36.9342 25.0497 36.4567 25.2354C35.9792 25.4211 35.4221 25.4211 34.9446 25.1823C32.1856 23.909 28.8695 24.4926 26.6942 26.6679C24.5189 28.8167 23.9352 32.1328 25.2086 34.9183C25.4474 35.4223 25.4474 35.9794 25.2617 36.4569C25.1025 36.9079 24.7576 37.3058 24.2536 37.5446C23.9883 37.6772 23.723 37.7303 23.4312 37.7303C23.2986 37.7303 23.1659 37.7038 23.0333 37.6772H22.9802C21.7864 37.5181 20.6192 37.8895 19.7437 38.7649C19.0275 39.4812 18.6295 40.4627 18.6295 41.4708C18.6295 42.5054 19.0275 43.4605 19.7437 44.1767C21.2293 45.6623 23.67 45.6623 25.1555 44.1767C26.0045 43.3013 26.4289 42.0544 26.2167 40.8341V40.6484C26.1902 40.3036 26.2697 39.9852 26.4024 39.6669C26.6146 39.1894 27.0125 38.8445 27.4901 38.6588C27.9676 38.4731 28.4981 38.4731 29.0022 38.7119C31.7611 39.9852 35.0772 39.4016 37.2525 37.2263C39.4279 35.0775 40.0115 31.7349 38.7381 28.9759C38.5259 28.4984 38.4994 27.9678 38.6851 27.4903C38.8708 27.0128 39.2156 26.6149 39.7197 26.3761C40.0911 26.2169 40.4625 26.1639 40.8074 26.2169H40.9931C42.1868 26.3761 43.3541 26.0047 44.2295 25.1293C45.7151 23.6437 45.7151 21.2031 44.2295 19.7175ZM35.0241 29.0024C36.6689 30.6737 36.6689 33.3531 35.0241 34.9979C33.3794 36.6426 30.7 36.6426 29.0287 34.9979C27.3839 33.3266 27.3839 30.6472 29.0287 29.0024C30.7 27.3577 33.3794 27.3577 35.0241 29.0024ZM45.6356 18.3645C47.8905 20.646 47.8905 24.3069 45.6356 26.5618C44.7866 27.3842 43.752 27.9148 42.6909 28.18C44.203 32.2654 43.2215 36.9344 40.0911 40.0648C37.9423 42.2136 35.0507 43.3543 32.106 43.3543C30.7796 43.3543 29.4532 43.1156 28.1798 42.6381C27.9676 43.7257 27.437 44.7869 26.5881 45.6358C24.3066 47.8907 20.6457 47.8907 18.3908 45.6358C16.1359 43.3543 16.1359 39.6934 18.3908 37.4385C19.2397 36.5896 20.2743 36.059 21.362 35.8468C19.7968 31.7349 20.7783 27.0128 23.9087 23.8824C27.0391 20.7521 31.7346 19.7705 35.8465 21.3092C36.0853 20.248 36.5893 19.2134 37.4382 18.3645C39.7197 16.1096 43.3806 16.1096 45.6356 18.3645Z" fill="#38A2FF"/>
</svg>

<svg width="64" height="64" fill="none" xmlns="http://www.w3.org/2000/svg"><rect width="64" height="64" rx="4" fill="#fff"/><path fill-rule="evenodd" clip-rule="evenodd" d="M32 6.4c14.14 0 25.6 11.46 25.6 25.6S46.14 57.6 32 57.6 6.4 46.14 6.4 32 17.86 6.4 32 6.4zm12.23 13.318a3.843 3.843 0 00-5.412 0 3.873 3.873 0 00-1.088 3.316c.053.397.027.822-.16 1.193a2.07 2.07 0 01-1.113 1.008 1.878 1.878 0 01-1.512-.053 7.352 7.352 0 00-8.25 1.486c-2.176 2.149-2.76 5.465-1.486 8.25.238.504.238 1.061.053 1.539-.16.45-.504.849-1.008 1.088a1.789 1.789 0 01-.823.185c-.132 0-.265-.026-.398-.053h-.053a3.794 3.794 0 00-3.236 1.088 3.836 3.836 0 00-1.114 2.706 3.79 3.79 0 001.114 2.706 3.843 3.843 0 005.412 0c.849-.876 1.273-2.123 1.06-3.343v-.186c-.026-.344.054-.663.186-.981a1.93 1.93 0 011.088-1.008 1.881 1.881 0 011.512.053c2.76 1.273 6.075.69 8.25-1.486 2.176-2.148 2.76-5.491 1.486-8.25a1.927 1.927 0 01-.053-1.486 2.02 2.02 0 011.035-1.114 1.99 1.99 0 011.087-.16h.186a3.794 3.794 0 003.236-1.087 3.843 3.843 0 000-5.412zm-9.206 9.284c1.645 1.672 1.645 4.351 0 5.996-1.645 1.645-4.324 1.645-5.995 0-1.645-1.671-1.645-4.35 0-5.996 1.671-1.644 4.35-1.644 5.995 0zm10.612-10.637c2.255 2.281 2.255 5.942 0 8.197a6.482 6.482 0 01-2.945 1.618 11.298 11.298 0 01-2.6 11.885 11.285 11.285 0 01-7.985 3.29c-1.326 0-2.653-.24-3.926-.717a5.82 5.82 0 01-1.592 2.998c-2.281 2.255-5.942 2.255-8.197 0-2.255-2.282-2.255-5.943 0-8.198a5.743 5.743 0 012.971-1.591c-1.565-4.112-.584-8.834 2.547-11.965 3.13-3.13 7.826-4.112 11.938-2.573.238-1.061.742-2.096 1.591-2.945 2.282-2.254 5.943-2.254 8.198 0z" fill="#38A2FF"/></svg>
